X:169
T:Because I was a bonny lad
M:C|
L:1/8
B:Thompson's Compleat Collection of 200 Favourite Country Dances, vol. 1 (London, 1757)
Z:Transcribed and edited by Flynn Titford-Mock, 2007
Z:abc's:AK/Fiddler's Companion
K:A
e|c>BA=g f/g/a/ e>c|d>fe>c B/B/B Be|c>BA=g (f/g/a) ec|d>fec A/A/A A:|
|:e|cAeA fAeA|dfec B/B/B Be|cAeA fAeA|dfec A/A/A A:|

